X:2
T:Bill Connor's
R:reel
S:Liam O'Connor &amp; Sen McKeon (Geantrai 21/11/08)
Z:Me
M:C|
K:D
N:transcribed all four times through
A2 AF Adfd | BAFA Be e2  | defd A2 fg | afeg fd d2 |
d/c/B c/B/A BAFA | Beee  gece  | defd A2 fg | afea fA d2 ||
a2 fa bf f2 | afed Beef | a2 fa bff2 | ABde fA d2 |
a2 fa bf f2 | a2 fd Beef | a3 d' babc' | d'baf egfe ||
d2 Ad BAFA | B2 ea gece | defd A2 fg | afeg fddB |
A2 AF Adfd | BAFA Be e2  | defd A2 fg | afea fA d2 ||
a2 fa bf f2 | afed Beef | a2 fa bff2 | ABde fA d2 |
a2 fa bf f2 | afed Beef | a3 d' babc' | d'baf egfe ||
d2 Ad BAFA | B2 ea gece | defd A2 fg | afeg fddB |
d/c/B c/B/A BAFA | B2 ea gece  | defd A2 fg | afea fA d2 ||
a2 fa bf f2 | afed Beef | a2 fa bff2 | ABde fAdf |
a2 fa bf f2 | afed Beef | a3 d' babc' | d'baf egfe ||
d2 Ad BAFA | B2 ea gece  | defd A2 fg | afeg fd d2 |
d/c/B c/B/A BAFA | Beee  gece  | defd A2 fg | afea fA d2 ||
a2 fa bf f2 | afed e2 ef | a2 fa bff2 | ABde fA df |
a2 fa bf f2 | a2 fd Beef | a3 d' babc' | d'baf egfe || d2
